X:1
T:Title
%%score ( 1 2 ) { 3 | 4 }
L:1/8
Q:1/4=100
M:6/8
K:F
V:1 treble nm="Grand Piano, Soprano"
V:2 treble 
V:3 bass nm="Choir Pad, He Shall Reign, Gordon"
V:4 bass 
V:1
 CCD E F2 | [EG] [FA]2 [FA] [FA]2 | [FA] [Fc]2 [CB] [CE]2 | [CF] [EG]2- [EG]2- [EG]/ z/ | %4
w: By~James~McGranahan,~1895 * * * *||||
 [CE] [CE]2 [DF] [EG]2 | [FA] [GB]2 [GB] [GB]2 | [GB] [Ge]2 [Gd] [Fd]2 | %7
w: |||
 [FG] [Ec]2- [Ec]2- [Ec]/ z/ | [Cc]/[Cc]/ [Cc]2 [EG]GA | [EB] d2- d c2 | F/E/DE F A2 | %11
w: ||||
 G [EG]2- [EG]2- [EG]/ z/ | c/c/c[Gc] [Bc] [Af]2 | [Fc] e2- e d2 | [Fd]/[Fd]/dc [EB] [EA]2 | %15
w: ||||
 [CG] [CF]2- [CF]3- | [CF]3 z3 |] %17
w: ||
V:2
 x6 | x6 | x6 | x6 | x6 | x6 | x6 | x6 | z3 z E2 | z F2- F2- F/ z/ | x6 | x6 | x6 | %13
 z F2- F2- F/ z/ | z E2 z3 | x6 | x6 |] %17
V:3
 C,C,D, E, F,2 | C C2 C C2 | C C2 C B,2 | A, C2- C2- C/ z/ | C C2 C C2 | C C2 C C2 | %6
 C[K:bass] B,2 B, =B,2 | =B, C2- C2- C/ z/ | C/C/ C2 C C2 | B, B,2- B, A,2 | F,/F,/D,E, F, A,2 | %11
 G,[K:treble] C2- C2- C/ z/ | C/C/CC C C2 | C C2- C[K:bass] B,2 | B,/B,/B,A, G, C2 | B, A,2- A,3- | %16
 A,3 z3 |] %17
V:4
 z6 | C, F,2 F, F,2 | F, A,2 G, G,2 | F, C,2- C,2- C,/ z/ | C, B,2 A, G,2 | F, E,2 D, C,2 | %6
 C, C,2 E, G,2 | G, C,2- C,2- C,/ z/ | C,/C,/ C,2 B,B,A, | G, F,2- F,2- F,/ z/ | z6 | %11
 z C,2- C,2- C,/ z/ | z2 B, G, F,2 | A,, B,,2- B,,2- B,,/ z/ | B,,/B,,/ C,2 C, C,2 | C, F,2- F,3- | %16
 F,3 z3 |] %17

